apps/scalable/latex.svg

<svg xmlns="http://www.w3.org/2000/svg" style="isolation:isolate" width="256" height="256"><defs><filter id="a" width="270.648" height="254.338" x="-7.32" y="2.95" filterUnits="userSpaceOnUse"><feGaussianBlur xmlns="http://www.w3.org/2000/svg" in="SourceGraphic" stdDeviation="4.294"/><feOffset xmlns="http://www.w3.org/2000/svg" dy="4" result="pf_100_offsetBlur"/><feFlood xmlns="http://www.w3.org/2000/svg" flood-opacity=".4"/><feComposite xmlns="http://www.w3.org/2000/svg" in2="pf_100_offsetBlur" operator="in" result="pf_100_dropShadow"/><feBlend xmlns="http://www.w3.org/2000/svg" in="SourceGraphic" in2="pf_100_dropShadow"/></filter></defs><path fill="#CCC" d="M165.685 11.947c74.055 0 84.639 10.557 84.639 84.544v59.251c0 73.986-10.584 84.543-84.639 84.543h-75.37c-74.055 0-84.639-10.557-84.639-84.543V96.491c0-73.987 10.584-84.544 84.639-84.544h75.37z" filter="url(#a)"/><g opacity=".4"><linearGradient id="b" x1=".517" x2=".517" y2="1"><stop offset="0%" stop-color="#fff"/><stop offset="12.5%" stop-opacity=".098" stop-color="#fff"/><stop offset="92.5%" stop-opacity=".098"/><stop offset="100%" stop-opacity=".498"/></linearGradient><path fill="none" stroke="url(#b)" stroke-linecap="round" stroke-linejoin="round" stroke-width="4.077" d="M165.685 11.947c74.055 0 84.639 10.557 84.639 84.544v59.251c0 73.986-10.584 84.543-84.639 84.543h-75.37c-74.055 0-84.639-10.557-84.639-84.543V96.491c0-73.987 10.584-84.544 84.639-84.544h75.37z" vector-effect="non-scaling-stroke"/></g><g fill="#BC1938"><path d="M102.336 81.118H41.96l-1.765 23.124h1.879c1.351-17.319 2.837-20.35 19.05-20.35h5.771c1.997.312 1.997 1.583 1.997 3.99v56.914c0 3.778-.316 4.931-9.124 4.931H56.8v2.525c5.016-.097 10.243-.199 15.373-.199 5.113 0 10.357.102 15.369.199v-2.525h-2.918c-8.676 0-8.989-1.153-8.989-4.931V87.882c0-2.31 0-3.564 1.883-3.99h5.738c15.998 0 17.564 3.014 18.915 20.35h1.883"/><path d="M154.8 148.608h-1.879c-2.293 15.504-3.644 23.931-22.035 23.931h-14.512c-4.175 0-4.374-.528-4.374-4.125v-29.225h9.863c9.863 0 10.805 3.614 10.805 12.438h1.68v-27.199h-1.68c0 8.677-.942 12.223-10.805 12.223H112V110.74c0-3.53.199-4.057 4.374-4.057h14.296c16.18 0 18.063 6.43 19.528 20.253h1.883l-2.508-23.124H96.632v2.871c7.405 0 8.592 0 8.592 4.699v56.424c0 4.7-1.17 4.7-8.592 4.7v2.524h54.41"/><path d="M184.732 112.032l.125-.213c-.125.213 11.637-18.402 13.6-21.497 1.549-2.196 4.699-6.713 13.278-6.827V80.97c-2.394.198-6.367.198-8.875.198-3.445 0-7.735 0-10.34-.198v2.525c3.348.312 4.172 2.406 4.172 4.091 0 1.25-.511 2.094-1.254 3.133l-13.802 20.021-15.47-22.643c-.726-1.14-.828-1.469-.828-1.782 0-.941 1.14-2.723 4.602-2.82V80.97c-3.348.198-8.461.198-11.906.198-2.706 0-7.933 0-10.458-.198v2.525c5.742 0 7.621.215 9.93 3.462l20.169 29.622-18.189 26.57c-4.488 6.498-11.281 6.612-13.278 6.612v2.525c2.39-.198 6.367-.198 8.875-.198 2.82 0 7.735 0 10.34.198v-2.525c-3.234-.312-4.172-2.407-4.172-4.091 0-1.352.511-2.095 1.039-2.838l16.724-24.408 18.189 26.735c.823 1.157.823 1.469.823 1.781 0 .824-.937 2.622-4.598 2.838v2.525c3.348-.199 8.461-.199 11.906-.199 2.707 0 7.934 0 10.471.199v-2.525c-6.696 0-7.751-.511-9.829-3.462"/></g></svg>

<svg xmlns="http://www.w3.org/2000/svg" style="isolation:isolate" width="256" height="256" viewBox="0 0 256 256">
 <defs>
  <filter id="qKp76YZH8j7FxAMnb1q4FYZ1ZNdcEDSx" width="270.648" height="254.338" x="-7.32" y="2.95" filterUnits="userSpaceOnUse">
   <feGaussianBlur xmlns="http://www.w3.org/2000/svg" in="SourceGraphic" stdDeviation="4.294"/>
   <feOffset xmlns="http://www.w3.org/2000/svg" dx="0" dy="4" result="pf_100_offsetBlur"/>
   <feFlood xmlns="http://www.w3.org/2000/svg" flood-opacity=".4"/>
   <feComposite xmlns="http://www.w3.org/2000/svg" in2="pf_100_offsetBlur" operator="in" result="pf_100_dropShadow"/>
   <feBlend xmlns="http://www.w3.org/2000/svg" in="SourceGraphic" in2="pf_100_dropShadow" mode="normal"/>
  </filter>
 </defs>
 <g filter="url(#qKp76YZH8j7FxAMnb1q4FYZ1ZNdcEDSx)">
  <path fill="#CCCCCC" d="M 165.685 11.947 C 239.74 11.947 250.324 22.504 250.324 96.491 L 250.324 155.742 C 250.324 229.728 239.74 240.285 165.685 240.285 L 90.315 240.285 C 16.26 240.285 5.676 229.728 5.676 155.742 L 5.676 96.491 C 5.676 22.504 16.26 11.947 90.315 11.947 L 165.685 11.947 Z"/>
 </g>
 <g opacity=".4">
  <linearGradient id="_lgradient_175" x1=".517" x2=".517" y1="0" y2="1">
   <stop offset="0%" style="stop-color:rgb(255,255,255)"/>
   <stop offset="12.5%" stop-opacity=".098" style="stop-color:rgb(255,255,255)"/>
   <stop offset="92.5%" stop-opacity=".098" style="stop-color:rgb(0,0,0)"/>
   <stop offset="100%" stop-opacity=".498" style="stop-color:rgb(0,0,0)"/>
  </linearGradient>
  <path fill="none" stroke="url(#_lgradient_175)" stroke-linecap="round" stroke-linejoin="round" stroke-width="4.077" d="M 165.685 11.947 C 239.74 11.947 250.324 22.504 250.324 96.491 L 250.324 155.742 C 250.324 229.728 239.74 240.285 165.685 240.285 L 90.315 240.285 C 16.26 240.285 5.676 229.728 5.676 155.742 L 5.676 96.491 C 5.676 22.504 16.26 11.947 90.315 11.947 L 165.685 11.947 Z" vector-effect="non-scaling-stroke"/>
 </g>
 <g>
  <path fill="#BC1938" d="M 102.336 81.118 L 41.96 81.118 L 40.195 104.242 L 42.074 104.242 C 43.425 86.923 44.911 83.892 61.124 83.892 C 63.003 83.892 66.055 83.892 66.895 83.892 C 68.892 84.204 68.892 85.475 68.892 87.882 L 68.892 144.796 C 68.892 148.574 68.576 149.727 59.768 149.727 L 56.8 149.727 L 56.8 152.252 C 61.816 152.155 67.043 152.053 72.173 152.053 C 77.286 152.053 82.53 152.155 87.542 152.252 L 87.542 149.727 L 84.624 149.727 C 75.948 149.727 75.635 148.574 75.635 144.796 L 75.635 87.882 C 75.635 85.572 75.635 84.318 77.518 83.892 C 78.342 83.892 81.377 83.892 83.256 83.892 C 99.254 83.892 100.82 86.906 102.171 104.242 L 104.054 104.242"/>
  <path fill="#BC1938" d="M 154.8 148.608 L 152.921 148.608 C 150.628 164.112 149.277 172.539 130.886 172.539 L 116.374 172.539 C 112.199 172.539 112 172.011 112 168.414 L 112 139.189 L 121.863 139.189 C 131.726 139.189 132.668 142.803 132.668 151.627 L 134.348 151.627 L 134.348 124.428 L 132.668 124.428 C 132.668 133.105 131.726 136.651 121.863 136.651 L 112 136.651 L 112 110.74 C 112 107.21 112.199 106.683 116.374 106.683 L 130.67 106.683 C 146.85 106.683 148.733 113.113 150.198 126.936 L 152.081 126.936 L 149.573 103.812 L 96.632 103.812 L 96.632 106.683 C 104.037 106.683 105.224 106.683 105.224 111.382 L 105.224 167.806 C 105.224 172.506 104.054 172.506 96.632 172.506 L 96.632 175.03 L 151.042 175.03"/>
  <path fill="#BC1938" d="M 184.732 112.032 C 184.732 112.032 184.939 111.68 184.857 111.819 C 184.732 112.032 196.494 93.417 198.457 90.322 C 200.006 88.126 203.156 83.609 211.735 83.495 L 211.735 80.97 C 209.341 81.168 205.368 81.168 202.86 81.168 C 199.415 81.168 195.125 81.168 192.52 80.97 L 192.52 83.495 C 195.868 83.807 196.692 85.901 196.692 87.586 C 196.692 88.836 196.181 89.68 195.438 90.719 L 181.636 110.74 L 166.166 88.097 C 165.44 86.957 165.338 86.628 165.338 86.315 C 165.338 85.374 166.478 83.592 169.94 83.495 L 169.94 80.97 C 166.592 81.168 161.479 81.168 158.034 81.168 C 155.328 81.168 150.101 81.168 147.576 80.97 L 147.576 83.495 C 153.318 83.495 155.197 83.71 157.506 86.957 L 177.675 116.579 L 159.486 143.149 C 154.998 149.647 148.205 149.761 146.208 149.761 L 146.208 152.286 C 148.598 152.088 152.575 152.088 155.083 152.088 C 157.903 152.088 162.818 152.088 165.423 152.286 L 165.423 149.761 C 162.189 149.449 161.251 147.354 161.251 145.67 C 161.251 144.318 161.762 143.575 162.29 142.832 L 179.014 118.424 L 197.203 145.159 C 198.026 146.316 198.026 146.628 198.026 146.94 C 198.026 147.764 197.089 149.562 193.428 149.778 L 193.428 152.303 C 196.776 152.104 201.889 152.104 205.334 152.104 C 208.041 152.104 213.268 152.104 215.805 152.303 L 215.805 149.778 C 209.109 149.778 208.054 149.267 205.976 146.316"/>
 </g>
</svg>
